Newaita/actions/16/distribute-vertical-page.svg

<svg height="16" viewBox="0 0 16 16" width="16" xmlns="http://www.w3.org/2000/svg"><g fill="#424242"><path d="m2.644531 1.449219c-.730469 0-1.320312.589843-1.320312 1.320312v7.941407l1.320312 1.320312v-8.597656c0-.367188.296875-.664063.664063-.664063h9.261718c.363282 0 .660157.296875.660157.664063v9.261718c0 .363282-.296875.660157-.660157.660157h-8.601562l1.324219 1.324219h7.9375c.734375 0 1.324219-.589844 1.324219-1.324219v-10.585938c0-.730469-.589844-1.320312-1.324219-1.320312zm0 0"/><path d="m11.578125 7.402344c-.183594 0-.332031-.148438-.332031-.332032v-2.644531c0-.183593.148437-.332031.332031-.332031.179687 0 .328125.148438.328125.332031v2.644531c0 .183594-.148438.332032-.328125.332032zm0 0"/><path d="m4.316406 7.402344h-.035156c-.171875 0-.3125-.148438-.3125-.332032v-2.644531c0-.183593.140625-.332031.3125-.332031h.035156c.175782 0 .3125.148438.3125.332031v2.644531c0 .183594-.136718.332032-.3125.332032zm0 0"/><path d="m3.96875 7.085938v-.003907c0-.171875.148438-.316406.332031-.316406h7.277344c.179687 0 .328125.144531.328125.316406v.003907c0 .175781-.148438.316406-.328125.316406h-7.277344c-.183593 0-.332031-.140625-.332031-.316406zm0 0"/><path d="m3.96875 4.4375v-.027344c0-.175781.140625-.316406.316406-.316406h7.304688c.175781 0 .316406.140625.316406.316406v.027344c0 .175781-.140625.316406-.316406.316406h-7.304688c-.175781 0-.316406-.140625-.316406-.316406zm0 0"/><path d="m11.578125 12.03125c-.183594 0-.332031-.148438-.332031-.328125v-2.648437c0-.183594.148437-.328126.332031-.328126.179687 0 .328125.144532.328125.328126v2.648437c0 .179687-.148438.328125-.328125.328125zm0 0"/><path d="m6.613281 11.398438v.632812h4.964844c.183594 0 .328125-.140625.328125-.316406 0-.175782-.144531-.316406-.328125-.316406zm0 0"/><path d="m4.285156 8.726562c-.175781 0-.316406.140626-.316406.316407v.027343c0 .136719.085938.253907.207031.296876h1.445313v.019531h5.96875c.175781 0 .316406-.140625.316406-.316407v-.027343c0-.175781-.140625-.316407-.316406-.316407zm0 0"/><path d="m2.644531 10.710938c-.363281 0-.695312.144531-.933593.386718l3.195312 3.195313c.238281-.242188.386719-.570313.386719-.9375v-1.324219c0-.730469-.589844-1.320312-1.324219-1.320312zm0 0"/></g></svg>

<svg xmlns="http://www.w3.org/2000/svg" xmlns:xlink="http://www.w3.org/1999/xlink" width="16px" height="16px" viewBox="0 0 16 16" version="1.1">
<g id="surface1">
     <defs>
  <style id="current-color-scheme" type="text/css">
   .ColorScheme-Text { color:#424242; } .ColorScheme-Highlight { color:#eeeeee; }
  </style>
 </defs>
<path style="fill:currentColor" class="ColorScheme-Text" d="M 2.644531 1.449219 C 1.914062 1.449219 1.324219 2.039062 1.324219 2.769531 L 1.324219 10.710938 L 2.644531 12.03125 L 2.644531 3.433594 C 2.644531 3.066406 2.941406 2.769531 3.308594 2.769531 L 12.570312 2.769531 C 12.933594 2.769531 13.230469 3.066406 13.230469 3.433594 L 13.230469 12.695312 C 13.230469 13.058594 12.933594 13.355469 12.570312 13.355469 L 3.96875 13.355469 L 5.292969 14.679688 L 13.230469 14.679688 C 13.964844 14.679688 14.554688 14.089844 14.554688 13.355469 L 14.554688 2.769531 C 14.554688 2.039062 13.964844 1.449219 13.230469 1.449219 Z M 2.644531 1.449219 "/>
     <defs>
  <style id="current-color-scheme" type="text/css">
   .ColorScheme-Text { color:#424242; } .ColorScheme-Highlight { color:#eeeeee; }
  </style>
 </defs>
<path style="fill:currentColor" class="ColorScheme-Text" d="M 11.578125 7.402344 C 11.394531 7.402344 11.246094 7.253906 11.246094 7.070312 L 11.246094 4.425781 C 11.246094 4.242188 11.394531 4.09375 11.578125 4.09375 C 11.757812 4.09375 11.90625 4.242188 11.90625 4.425781 L 11.90625 7.070312 C 11.90625 7.253906 11.757812 7.402344 11.578125 7.402344 Z M 11.578125 7.402344 "/>
     <defs>
  <style id="current-color-scheme" type="text/css">
   .ColorScheme-Text { color:#424242; } .ColorScheme-Highlight { color:#eeeeee; }
  </style>
 </defs>
<path style="fill:currentColor" class="ColorScheme-Text" d="M 4.316406 7.402344 L 4.28125 7.402344 C 4.109375 7.402344 3.96875 7.253906 3.96875 7.070312 L 3.96875 4.425781 C 3.96875 4.242188 4.109375 4.09375 4.28125 4.09375 L 4.316406 4.09375 C 4.492188 4.09375 4.628906 4.242188 4.628906 4.425781 L 4.628906 7.070312 C 4.628906 7.253906 4.492188 7.402344 4.316406 7.402344 Z M 4.316406 7.402344 "/>
     <defs>
  <style id="current-color-scheme" type="text/css">
   .ColorScheme-Text { color:#424242; } .ColorScheme-Highlight { color:#eeeeee; }
  </style>
 </defs>
<path style="fill:currentColor" class="ColorScheme-Text" d="M 3.96875 7.085938 L 3.96875 7.082031 C 3.96875 6.910156 4.117188 6.765625 4.300781 6.765625 L 11.578125 6.765625 C 11.757812 6.765625 11.90625 6.910156 11.90625 7.082031 L 11.90625 7.085938 C 11.90625 7.261719 11.757812 7.402344 11.578125 7.402344 L 4.300781 7.402344 C 4.117188 7.402344 3.96875 7.261719 3.96875 7.085938 Z M 3.96875 7.085938 "/>
     <defs>
  <style id="current-color-scheme" type="text/css">
   .ColorScheme-Text { color:#424242; } .ColorScheme-Highlight { color:#eeeeee; }
  </style>
 </defs>
<path style="fill:currentColor" class="ColorScheme-Text" d="M 3.96875 4.4375 L 3.96875 4.410156 C 3.96875 4.234375 4.109375 4.09375 4.285156 4.09375 L 11.589844 4.09375 C 11.765625 4.09375 11.90625 4.234375 11.90625 4.410156 L 11.90625 4.4375 C 11.90625 4.613281 11.765625 4.753906 11.589844 4.753906 L 4.285156 4.753906 C 4.109375 4.753906 3.96875 4.613281 3.96875 4.4375 Z M 3.96875 4.4375 "/>
     <defs>
  <style id="current-color-scheme" type="text/css">
   .ColorScheme-Text { color:#424242; } .ColorScheme-Highlight { color:#eeeeee; }
  </style>
 </defs>
<path style="fill:currentColor" class="ColorScheme-Text" d="M 11.578125 12.03125 C 11.394531 12.03125 11.246094 11.882812 11.246094 11.703125 L 11.246094 9.054688 C 11.246094 8.871094 11.394531 8.726562 11.578125 8.726562 C 11.757812 8.726562 11.90625 8.871094 11.90625 9.054688 L 11.90625 11.703125 C 11.90625 11.882812 11.757812 12.03125 11.578125 12.03125 Z M 11.578125 12.03125 "/>
     <defs>
  <style id="current-color-scheme" type="text/css">
   .ColorScheme-Text { color:#424242; } .ColorScheme-Highlight { color:#eeeeee; }
  </style>
 </defs>
<path style="fill:currentColor" class="ColorScheme-Text" d="M 6.613281 11.398438 L 6.613281 12.03125 L 11.578125 12.03125 C 11.761719 12.03125 11.90625 11.890625 11.90625 11.714844 C 11.90625 11.539062 11.761719 11.398438 11.578125 11.398438 Z M 6.613281 11.398438 "/>
     <defs>
  <style id="current-color-scheme" type="text/css">
   .ColorScheme-Text { color:#424242; } .ColorScheme-Highlight { color:#eeeeee; }
  </style>
 </defs>
<path style="fill:currentColor" class="ColorScheme-Text" d="M 4.285156 8.726562 C 4.109375 8.726562 3.96875 8.867188 3.96875 9.042969 L 3.96875 9.070312 C 3.96875 9.207031 4.054688 9.324219 4.175781 9.367188 L 5.621094 9.367188 L 5.621094 9.386719 L 11.589844 9.386719 C 11.765625 9.386719 11.90625 9.246094 11.90625 9.070312 L 11.90625 9.042969 C 11.90625 8.867188 11.765625 8.726562 11.589844 8.726562 Z M 4.285156 8.726562 "/>
     <defs>
  <style id="current-color-scheme" type="text/css">
   .ColorScheme-Text { color:#424242; } .ColorScheme-Highlight { color:#eeeeee; }
  </style>
 </defs>
<path style="fill:currentColor" class="ColorScheme-Text" d="M 2.644531 10.710938 C 2.28125 10.710938 1.949219 10.855469 1.710938 11.097656 L 4.90625 14.292969 C 5.144531 14.050781 5.292969 13.722656 5.292969 13.355469 L 5.292969 12.03125 C 5.292969 11.300781 4.703125 10.710938 3.96875 10.710938 Z M 2.644531 10.710938 "/>
</g>
</svg>
